X: 1
T: Lady Maxwell's Reel
O: RSCDS 26-8
B: RSCDS 26-8
R: march, air
Z: John Chambers <jc:trillian.mit.edu>
M: C|
L: 1/8
K: F
c2 \
| "F"A2 G>F F2 GA | c2 A>c "Bb"d2 ef | "F"c3  A "Bb"B>A GF | "Gm"D2 G2 "C7"G2 c>B |
| "F"A2 G>F F2 GA | c2 A>c "Bb"d2 ef | "F"c3  A "Gm"B>A GF | "Bb"D2 F2 "F"F2 ||
A>B \
| "F"c3 d c>A GA | cA c>d     c3  A | "C"G2 Ac "Bb"f>e dc | "Dm"A2 d>e d2 "C7"ze |
| "F"f3 e "Dm"d2 cA | "C"G2 Ac "Bb"f2 de/f/ | "F"c3 A "Gm"B>A GF | "Bb"D2 F2 "F"F2 |]
